X:01
T: I'm Going Back To Old Kentucky
C: Bill Monroe
S: Sam Bush, on CD "Bluegrass Mandolin Extravaganza"
S: MandoZine TablEdit Archives
Z: TablEdited by John Strong for MandoZine
L: 1/8
Q: 532
M: 4/4
K: A
 z2 [AE][AE] [A2E2] [A2F2] | [e2A2] [eAA][eAA] [eAA][eAA] [eAA][eAA] | [eAA][eAA] [eAA][eA] [e=c][eB] [eA]E |
 [A2F2] [AE][AE] [AE][AE] [AE][AF] | [e2A2] [A2E2] [eA][eA] [e2c2] | [ae][ae] [ae][ae] [ae][ae] [ae][ae] |
 [ae][ae] [ae]e cB Ac | Bc dc BA GF | [AE][AE] [AE][AE] [AF][AE] [AF][AE] | [AF][AA] [AA][AA] [AA][AA] [AA][AA] |
 [AA][AA] [e=c][e^c] [ec][eB] [eA]E | [A2F2] [AE][AE] [AE][AE] [AE][AE] | [e2A2] [AE][AE] [eA][eA] [e2c2] |
 [ae][ae] [ae][ae] [ae][ae] [ae][ae] | cB Ac BA GB | A2 [AF]A [AA][AA] [AA][AA] |
 [AA]e af ec Bc | [e2A2] [AF]A [e2A2] [AF]A | [e2A2] [e2A2] [e=c][eB] [eA]E | [AF][AE] [A2E2] [AE][AE] [AE][AE] |
 [eA][AE] [AE][AE] [eA][eB] [ec][eA] | [ae][ae] [ae][ae] [ae]e af | ed cB AB cA |
 Bc df eg fa | gf ef ed cd | e2 [e=c]^c [ec][ec] [ec][ec] | [ec][ec] [e2c2] [e=c][eB] [eA]E |
 [A2F2] [AE][AE] [AE][AE] [AE][AE] | [e2A2] [A2E2] [eA][ec] [ec]e | [ae][ae] [ae][ae] [ae][ae] [ae]A |
 Bc Ac BA GB | AA [AF]A [AA][AA] [AA][AA] | [AA]e fa ea fa | ea fa ea fa | ec Bc Ac Bc |
 AF [A2E2] [eAE][eAE] [eAE][eAE] | [eAE][eA] [eA]c BA [e=c]B | Ac ea fg af | =gf ed cB Ac |
 Bc df eg fg | ag fe (3fgf ef | ed c[ec] [ec][ec] [ec]A | [e=c][e^c] [ec]A [e=c][eB] AE |
 [AF][AE] [AE][AE] [AE][AE] [AE][AF] | [eA][ec] [eA][ec] [eB][eA] [ec]A | [ee][ee] e[ee] [ee][ee] [ee][ee] |
 [eB][ec] [eA][ec] [eB][eA] [AG][eB] | [eA]A F[AA] [AA][AA] [AA][AA] | [A2A2] ee ea ae |
 ea ae ea ae | ea a=c' c'b ae | fa [ae][ae] [ae][ae] [ae][ae] | [ae][ae] [ae]e ab c'a |
 c'e' e'e' e'e' e'e' | e'e' e'e bc' ac' | ba gb ag fa | gf eg fd ef | ed cd ea fg |
 af e=c ^cf ec | (3BcB AB AF [A2E2] | z2 [AE]F A[ec] [eB][eA] | [ee][ee] [ae][ae] [ae][ae] [ae][ae] |
 [eB][ec] [eA][ec] [eB][eA] [AG][eB] | AB AB cA Bc | dB cd ea fe | fa aa aa ac' |
 c'c' c'c' =c'^c' c'c' | c'b ab af ea | fg af ed cB | Ac ea fg af | e=c ^cf ec Ac |
 Bc df eg fa | gf ef ed cB | [eA]F AA [eA][eA] [eA][eA] | [eA][eA] [eA][eA] [e=c][e^c] [eA]E |
 F[eAE] [eAE][eAE] [eAE][eAE] [eAE][eAF] | [eA][eB] [eA][ec] [eB][eA] [ec]A | [ae][ae] [ae][ae] [ae][ae] [ae]A |
 Bc Ac BA GB | [e2A2] [AF]A [AA][AA] [AA][AA] | [A2A2] [AE][AE] [AE][AE] [AF][AE] |
 [AF][AA] [eAA][eAA] [eAA][eAA] [eAA][eAA] | [eAA]A cc cB AE | [AF][AE] [AE][AE] [AE][AE] [AE][AF] |
 [e2A2] [AE][AE] [eA][eA] [ec]A | [ae][ae] [ae][ae] [ae][ae] [ae][ae] | [ae][ae] [ae]A cB Ac |
 BG AF GE FD | E2 EF GA BG | A2 [AF]A [AA][AA] [AA][AA] | [AA][AA] [AA]A [e=c][eB] [eA]E |
 [AF]A [AE][AE] [AE][AE] [AE][AF] | [e2A2] [A2E2] [eA][eA] [ec][eA] | [ae][ae] [ae][ae] [ae][ae] [ae][ae] |
 cB Ac BD GB | AA Ae fe ge | a8 |
